!!!OTL: DEM HERRN UND GUTEN FREUNDE
!!!ARE: Europa, Mitteleuropa, Deutschland
!!!SCT: E1128
!!!YEM: Copyright 1995, estate of Helmut Schaffrath.
**kern
*ICvox
*Ivox
*M3/4
*k[]
*C:
{4c
=1
2c
4c
=2
2c
4A
=3
2.G
=4
2G}
{4G
=5
2A
4A
=6
2B
4B
=7
2c}
{4c
=8
2c
4c
=9
2c
4c
=10
2d
4d
=11
2B}
{4B
=12
2B
4A
=13
2B
4B
=14
2c
4c
=15
2A}
{4c
=16
2B
4A
=17
2A
4G
=18
2.G
=19
2r}
==
!!!AGN: Trink -, Zech - Lied
!!!ONB: ESAC (Essen Associative Code) Database: ERK3
!!!AMT: simple triple
!!!AIN: vox
!!!EED: Helmut Schaffrath
!!!EEV: 1.0
*-
